images_elementary_svg/cmd/ko/lc_underline.svg

<svg height="24" width="24" xmlns="http://www.w3.org/2000/svg" xmlns:xlink="http://www.w3.org/1999/xlink"><radialGradient id="a" cx="10.918949" cy="4.564843" gradientTransform="matrix(-1.551757 .03070916 -.03957393 -1.999701 23.830413 11.037915)" gradientUnits="userSpaceOnUse" r="5.094793" xlink:href="#b"/><linearGradient id="b"><stop offset="0" stop-color="#555"/><stop offset="1" stop-color="#666"/></linearGradient><linearGradient id="c" gradientUnits="userSpaceOnUse" x1="13" x2="13" xlink:href="#b" y1="25" y2="3"/><path d="m2.5 21.5v2h19v-2z" fill="url(#c)"/><path d="m2.5 21.5v2h19v-2z" fill="none" opacity=".61" stroke="#000"/><path d="m3 22v1h18v-1z" fill="#fff" opacity=".2"/><path d="m3.5093144 2.5154195v1.5722672h8.0280916c-.404978 5.0741348-2.8444268 8.0766673-8.5855841 10.8162233l1.0481781 1.59609c7.099024-3.478046 9.514651-7.8146231 9.514651-13.9845805zm13.9906856-1.0154195v17h2v-17z" fill="url(#a)" stroke="#000" stroke-opacity=".6"/><path d="m17.5 1.5v1.5h2v-1.5zm-13.9902344 1.015625v1.5h9.9472654c.03486-.4892468.058594-.9858555.058594-1.5zm7.8300784 3.0722656c-.751574 4.1850813-3.2394491 6.8593084-8.3886721 9.3164064l.734375 1.117187c5.1914739-2.640564 7.4651561-5.592154 7.8515621-10.4335934z" fill="#fff" opacity=".2"/></svg>

<?xml version="1.0" encoding="UTF-8" standalone="no"?>
<svg
   xmlns:dc="http://purl.org/dc/elements/1.1/"
   xmlns:cc="http://creativecommons.org/ns#"
   xmlns:rdf="http://www.w3.org/1999/02/22-rdf-syntax-ns#"
   xmlns:svg="http://www.w3.org/2000/svg"
   xmlns="http://www.w3.org/2000/svg"
   xmlns:xlink="http://www.w3.org/1999/xlink"
   xmlns:sodipodi="http://sodipodi.sourceforge.net/DTD/sodipodi-0.dtd"
   xmlns:inkscape="http://www.inkscape.org/namespaces/inkscape"
   height="24"
   width="24"
   version="1.1"
   id="svg51"
   sodipodi:docname="lc_underline.svg"
   inkscape:version="0.92.4 (unknown)"
   inkscape:export-filename="/home/rizmut/Dokumen/Rizmut/Github/libreoffice-style-elementary/images_elementary/cmd/nl/lc_underline.png"
   inkscape:export-xdpi="96"
   inkscape:export-ydpi="96">
  <metadata
     id="metadata57">
    <rdf:RDF>
      <cc:Work
         rdf:about="">
        <dc:format>image/svg+xml</dc:format>
        <dc:type
           rdf:resource="http://purl.org/dc/dcmitype/StillImage" />
        <dc:title />
      </cc:Work>
    </rdf:RDF>
  </metadata>
  <defs
     id="defs55">
    <radialGradient
       inkscape:collect="always"
       xlink:href="#a"
       id="radialGradient1180"
       gradientUnits="userSpaceOnUse"
       gradientTransform="matrix(-1.551757,0.03070916,-0.03957393,-1.999701,23.830413,11.037915)"
       cx="10.918949"
       cy="4.5648432"
       fx="10.918949"
       fy="4.5648432"
       r="5.0947933" />
  </defs>
  <sodipodi:namedview
     pagecolor="#ffffff"
     bordercolor="#666666"
     borderopacity="1"
     objecttolerance="10"
     gridtolerance="10"
     guidetolerance="10"
     inkscape:pageopacity="0"
     inkscape:pageshadow="2"
     inkscape:window-width="1366"
     inkscape:window-height="714"
     id="namedview53"
     showgrid="true"
     inkscape:zoom="22.627417"
     inkscape:cx="4.0314524"
     inkscape:cy="3.8378096"
     inkscape:window-x="0"
     inkscape:window-y="28"
     inkscape:window-maximized="1"
     inkscape:current-layer="svg51"
     inkscape:snap-global="true">
    <inkscape:grid
       type="xygrid"
       id="grid864" />
  </sodipodi:namedview>
  <linearGradient
     id="a">
    <stop
       offset="0"
       stop-color="#555"
       id="stop2" />
    <stop
       offset="1"
       stop-color="#666"
       id="stop4" />
  </linearGradient>
  <linearGradient
     id="b"
     gradientUnits="userSpaceOnUse"
     x1="13"
     x2="13"
     xlink:href="#a"
     y1="25"
     y2="3" />
  <linearGradient
     id="c">
    <stop
       offset="0"
       id="stop8" />
    <stop
       offset="1"
       stop-opacity="0"
       id="stop10" />
  </linearGradient>
  <linearGradient
     id="d">
    <stop
       offset="0"
       stop-opacity="0"
       id="stop13" />
    <stop
       offset=".5"
       id="stop15" />
    <stop
       offset="1"
       stop-opacity="0"
       id="stop17" />
  </linearGradient>
  <radialGradient
     id="e"
     cx="40"
     cy="43.5"
     gradientTransform="matrix(.87733142 0 0 .75 -17.142285 -11.625)"
     gradientUnits="userSpaceOnUse"
     r="2"
     xlink:href="#c" />
  <radialGradient
     id="f"
     cx="9"
     cy="43.5"
     gradientTransform="matrix(.87733142 0 0 .75 -1.350319 -11.625)"
     gradientUnits="userSpaceOnUse"
     r="2"
     xlink:href="#c" />
  <linearGradient
     id="g"
     gradientTransform="matrix(.87733142 0 0 1 -5.736976 -22.5)"
     gradientUnits="userSpaceOnUse"
     x1="25"
     x2="25"
     xlink:href="#d"
     y1="45"
     y2="42" />
  <radialGradient
     id="h"
     cx="40"
     cy="43.5"
     gradientTransform="matrix(1 0 0 .75 -20 -9.125)"
     gradientUnits="userSpaceOnUse"
     r="2"
     xlink:href="#c" />
  <radialGradient
     id="i"
     cx="9"
     cy="43.5"
     gradientTransform="matrix(1 0 0 .75 -6 -9.125)"
     gradientUnits="userSpaceOnUse"
     r="2"
     xlink:href="#c" />
  <linearGradient
     id="j"
     gradientUnits="userSpaceOnUse"
     x1="14"
     x2="14"
     xlink:href="#d"
     y1="25"
     y2="22" />
  <linearGradient
     id="k"
     gradientUnits="userSpaceOnUse"
     x1="12.046913"
     x2="11.445407"
     xlink:href="#a"
     y1="25.559875"
     y2="4.349593" />
  <path
     d="m2.5 21.5v2h19v-2z"
     fill="url(#b)"
     id="path35" />
  <path
     d="m2.5 21.5v2h19v-2z"
     fill="none"
     opacity=".61"
     stroke="#000"
     id="path37" />
  <path
     d="m3 22v1h18v-1z"
     fill="#fff"
     opacity=".2"
     id="path39" />
  <path
     inkscape:connector-curvature="0"
     id="path1177"
     style="font-style:normal;font-variant:normal;font-weight:normal;font-stretch:normal;font-size:23.82222939px;line-height:1.25;font-family:'Droid Sans';-inkscape-font-specification:'Droid Sans';letter-spacing:0px;word-spacing:0px;fill:url(#radialGradient1180);fill-opacity:1;stroke:#000000;stroke-width:1;stroke-miterlimit:4;stroke-dasharray:none;stroke-opacity:0.6"
     d="M 3.5093144,2.5154195 V 4.0876867 H 11.537406 C 11.132428,9.1618215 8.6929792,12.164354 2.9518219,14.90391 L 4,16.5 C 11.099024,13.021954 13.514651,8.6853769 13.514651,2.5154195 Z M 17.5,1.5 v 17 h 2 v -17 z"
     sodipodi:nodetypes="cccccccccccc" />
  <path
     style="font-style:normal;font-variant:normal;font-weight:normal;font-stretch:normal;font-size:23.82222939px;line-height:1.25;font-family:'Droid Sans';-inkscape-font-specification:'Droid Sans';letter-spacing:0px;word-spacing:0px;fill:#ffffff;fill-opacity:1;stroke:none;stroke-width:1;stroke-miterlimit:4;stroke-dasharray:none;stroke-opacity:0.6;opacity:0.2"
     d="M 17.5 1.5 L 17.5 3 L 19.5 3 L 19.5 1.5 L 17.5 1.5 z M 3.5097656 2.515625 L 3.5097656 4.015625 L 13.457031 4.015625 C 13.491891 3.5263782 13.515625 3.0297695 13.515625 2.515625 L 3.5097656 2.515625 z M 11.339844 5.5878906 C 10.58827 9.7729719 8.1003949 12.447199 2.9511719 14.904297 L 3.6855469 16.021484 C 8.8770208 13.38092 11.150703 10.42933 11.537109 5.5878906 L 11.339844 5.5878906 z "
     id="path1183" />
</svg>
